!!!COM: Mozart, Wolfgang Amadeus
!!!OTL: String Quartet No. 13 in D Minor
!!!OMD: Allegro moderato
!!!OMV: 1
!!!SCT1: K<sup>1</sup> 173
!!!SCA: Chronologisch-thematisches Verzeichnis sämtlicher Tonwerke Wolfgang Amade Mozarts (L. von Köchel; 1862, 2/1905, 3/1937, 1947)
!!!SCT2: K<sup>6</sup> 173
!!!YOR: Breitkopf & Härtel Edition
!!!ENC: Frances Bennion
!!!CDT: 1756/1/27/-1791/12/5/
!!!OCY: Österreich
!!!YEC: Copyright (c) 1994, 2000 Center for Computer Assisted Research in the Humanities
!!!YEM: Rights to all derivative editions reserved.
!!!YEM: Refer to licensing agreement for further details.
!!!YEN: United States of America
**kern	**kern	**kern	**kern
*clefF4	*clefC3	*clefG2	*clefG2
*k[b-]	*k[b-]	*k[b-]	*k[b-]
*d:	*d:	*d:	*d:
*M4/4	*M4/4	*M4/4	*M4/4
1r	1r	1r	2a
.	.	.	2f
=2	=2	=2	=2
2D	2F	1A	[1d
2C	2F#	.	.
=3	=3	=3	=3
2BB-	2G	2B-	4d]
.	.	.	2dd
2FF#	2A	[2d	.
.	.	.	4cc
=4	=4	=4	=4
2GG	2G	2d_	2b-
4DD	4F	4d]	4a
4r	4r	4r	4r
=5	=5	=5	=5
1r	1r	1r	2g
.	.	.	2e
=6	=6	=6	=6
[1AA	4r	4r	2.c#
.	4E	4G	.
.	4E	4G	.
.	8E	4c#	8g
.	8G	.	8e
=7	=7	=7	=7
1AA]	4F	4d	2.d
.	2F	4A	.
.	.	4A	.
.	4A	4f	8dd
.	.	.	8a
=8	=8	=8	=8
4r	4r	2.f	2.a
4AA	4c#	.	.
4BB	4d	.	.
4C#	4A	4e	4g
=9	=9	=9	=9
4D	4A	4d	4f
4B-	4B-	4b-	2.r
4A	4A	4a	.
4C#	4C#	4c#	.
=10	=10	=10	=10
8D	8D	8d	2dd
8D	4A	4f	.
8D	.	.	.
8D	8A	8f	.
8D	8r	8r	4ff
8D	4f	4a	.
8D	.	.	4aa
8D	8f	8a	.
=11	=11	=11	=11
8D	8r	8r	2ddd
8D	4f	4a	.
8D	.	.	.
8D	8f	8a	.
8D	8r	8r	2fff
8D	4g#	4b	.
8D	.	.	.
8D	8g#	8b	.
=12	=12	=12	=12
8C	8r	8r	16eee
.	.	.	16ccc
8C	4a	4a	16ddd
.	.	.	16bb
8C	.	.	4aa
8C	8e	8a	.
8C	8r	8r	2r
8C	4e	4a	.
8C	.	.	.
8C	8e	8a	.
=13	=13	=13	=13
8BB	8r	8r	2ddd
8BB	4f	4g#	.
8BB	.	.	.
8BB	8f	8g#	.
8d	8r	8r	4bb
8d	8g#	8ff	.
8c	8a	8ee	4aa
8c	8a	8ee	.
=14	=14	=14	=14
8B	8r	8r	4gg#
8B	8b	8dd	.
8A	8a	8cc	4ff
8A	8a	8cc	.
8G#	8r	8r	4ee
8G#	4e	4b	.
8G#	.	.	4dd
8G#	8e	8b	.
=15	=15	=15	=15
8G#	8e	2b	2dd
8G#	8e	.	.
8G#	8e	.	.
8G#	8e	.	.
8A	8e	2a	2cc
8A	8e	.	.
8D#	8f#	.	.
8D#	8f#	.	.
=16	=16	=16	=16
4E	4B	4g#	4b
8r	8r	8r	8r
8E	8e	8e	8e
8E	8e	8e	8e
8E	8e	8e	8e
8E	8e	8e	8e
8E	8e	8e	8e
=17	=17	=17	=17
8.F	8.f	8.f	8.f
32E	32e	32e	32e
32F	32f	32f	32f
8E	8e	8e	8e
8E	8e	8e	8e
8E	8e	8e	8e
8E	8e	8e	8e
8E	8e	8e	8e
8E	8e	8e	8e
=18	=18	=18	=18
4AA	4A	4A	4A
2.r	4r	4r	8r
.	.	.	8cc
.	[2A	4e	8cc
.	.	.	8cc
.	.	4f	8cc
.	.	.	8cc
=19	=19	=19	=19
1r	4A]	4d#	8.cc
.	.	.	32b
.	.	.	32cc
.	4G#	2e	8b
.	.	.	8b
.	[2G	.	8b-
.	.	.	8b-
.	.	4d	8b-
.	.	.	8b-
=20	=20	=20	=20
2r	4G]	4c#	8.b-
.	.	.	32a
.	.	.	32b-
.	4F#	4d	8a
.	.	.	8a
8r	8F	8d#	8aa
8F	8c	8d#	8aa
8F	8c	8d#	8aa
8F	8c	8d#	8aa
=21	=21	=21	=21
4FF	4c	4d#	4aa
4r	4r	4r	4r
2EE	4c	4e	4a
.	4d	4G#	4b
=22	=22	=22	=22
4AA	4c	4A	4a
8r	8r	8r	8r
8E	8e	8e	8e
8E	8e	8e	8e
8E	8e	8e	8e
8E	8e	8e	8e
8E	8e	8e	8e
=23	=23	=23	=23
8.F	8.f	8.f	8.f
32E	32e	32e	32e
32F	32f	32f	32f
8E	8e	8e	8e
8E	8e	8e	8e
8E	8e	8e	8e
8E	8e	8e	8e
8E	8e	8e	8e
8E	8e	8e	8e
=24	=24	=24	=24
4AA	4A	4A	4c
2.r	2.r	2.r	8r
.	.	.	8ee
.	.	.	8ee
.	.	.	8ee
.	.	.	8ee
.	.	.	8ee
=25	=25	=25	=25
1r	4g#	4b	8.ff
.	.	.	32ee
.	.	.	32ff
.	4a	4cc	8ee
.	.	.	8ee
.	2r	2r	8ee
.	.	.	8ee
.	.	.	8ee
.	.	.	8ee
=26	=26	=26	=26
1r	4g	4b-	8.cc#
.	.	.	32b
.	.	.	32cc#
.	4f#	4a	8dd
.	.	.	8dd
.	2r	2r	8dd
.	.	.	8dd
.	.	.	8dd
.	.	.	8dd
=27	=27	=27	=27
1r	4f#	4a	8.ee-
.	.	.	32dd
.	.	.	32ee-
.	4g	4b-	8dd
.	.	.	8dd
.	2r	2r	8dd
.	.	.	8dd
.	.	.	8dd
.	.	.	8dd
=28	=28	=28	=28
1r	4f	4a-	8.b
.	.	.	32a
.	.	.	32b
.	4e	4g	8cc
.	.	.	8cc
.	2r	2r	8cc
.	.	.	8cc
.	.	.	8cc
.	.	.	8cc
=29	=29	=29	=29
[1BB	4e	4g	8.a#
.	.	.	32g#
.	.	.	32a#
.	4d#	4f#	8b
.	.	.	8b
.	4f#	4a	8b
.	.	.	8b
.	[4e	[4g	8b
.	.	.	8b
=30	=30	=30	=30
1BB_	4e]	4g]	8.a#
.	.	.	32g#
.	.	.	32a#
.	4d#	4f#	8b
.	.	.	8b
.	4f#	4a	8b
.	.	.	8b
.	[4e	[4g	8b
.	.	.	8b
=31	=31	=31	=31
4.BB]	4e]	4g]	8.a#
.	.	.	32g#
.	.	.	32a#
.	8d#	8f#	4b
8B	8b	8b	.
8B	8b	8b	2r
8B	8b	8b	.
8B	8b	8b	.
8B	8b	8b	.
=32	=32	=32	=32
8.c	8.cc	8.cc	1r
32B	32b	32b	.
32c	32cc	32cc	.
8B	8b	8b	.
8B	8b	8b	.
8B	8b	8b	.
8B	8b	8b	.
8B	8b	8b	.
8B	8b	8b	.
=33	=33	=33	=33
4E	4e	4e	2b
2.r	4D#	2.r	.
.	4E	.	2g
.	4G	.	.
=34	=34	=34	=34
2E	1r	4r	4e
.	.	4G#	2e
2C	.	4A	.
.	.	4c	4e
=35	=35	=35	=35
4AA	4r	1r	2a
2AA	4C#	.	.
.	4D	.	2f#
4AA	4F#	.	.
=36	=36	=36	=36
2D	1r	4r	4d
.	.	4f#	2d
2BB-	.	4g	.
.	.	4b-	4d
=37	=37	=37	=37
4GG	1r	4r	4r
2GG	.	4d	2b-
.	.	4e-	.
4GG	.	4d	4bb-
=38	=38	=38	=38
1r	2G	4.c#	4aa
.	.	.	2a
.	.	16d	.
.	.	16e	.
.	2F#	4d	.
.	.	4c	4aa
=39	=39	=39	=39
1r	2F	4.B	4gg
.	.	.	2g
.	.	16c	.
.	.	16d	.
.	4E	4c	.
.	4E-	4c#	4gg
=40	=40	=40	=40
4.r	4D	4d	4ff#
.	8r	8r	8r
8D	8d	8d	8d
8D	8d	8d	8d
8D	8d	8d	8d
8D	8d	8d	8d
8D	8d	8d	8d
=41	=41	=41	=41
8.E-	8.e-	8.e-	8.e-
32D	32d	32d	32d
32E-	32e-	32e-	32e-
8D	8d	8d	8d
8D	8d	8d	8d
8D	8d	8d	8d
8D	8d	8d	8d
8D	8d	8d	8d
8D	8d	8d	8d
=42	=42	=42	=42
4GG	4G	4G	4G
2.r	2.r	2.r	8r
.	.	.	8dd
.	.	.	8dd
.	.	.	8dd
.	.	.	8dd
.	.	.	8dd
=43	=43	=43	=43
4.r	4.r	4.r	4ff
.	.	.	8r
8BB-	8d	8f	8g#
8BB-	8d	8f	8g#
8BB-	8d	8f	8g#
8BB-	8d	8f	8g#
8BB-	8d	8f	8g#
=44	=44	=44	=44
4AA	4e	4c#	4a
2.r	2.r	2.r	8r
.	.	.	8a
.	.	.	8a
.	.	.	8a
.	.	.	8a
.	.	.	8a
=45	=45	=45	=45
1r	1r	1r	8.b-
.	.	.	32a
.	.	.	32b-
.	.	.	8a
.	.	.	8a
.	.	.	8a
.	.	.	8a
.	.	.	8a
.	.	.	8a
=46	=46	=46	=46
4F#	4a	4cc	4ee-
2.r	2.r	2.r	8r
.	.	.	8a
.	.	.	8a
.	.	.	8a
.	.	.	8a
.	.	.	8a
=47	=47	=47	=47
1r	1r	1r	8.b-
.	.	.	32a
.	.	.	32b-
.	.	.	8a
.	.	.	8a
.	.	.	8a
.	.	.	8a
.	.	.	8a
.	.	.	8a
=48	=48	=48	=48
4F	4a	4cc	4ee-
2.r	2.r	2.r	8r
.	.	.	8a
.	.	.	8a
.	.	.	8a
.	.	.	8a
.	.	.	8a
=49	=49	=49	=49
1r	1r	1r	8.b-
.	.	.	32a
.	.	.	32b-
.	.	.	8a
.	.	.	8a
.	.	.	8a
.	.	.	8a
.	.	.	8a
.	.	.	8a
=50	=50	=50	=50
4E	4b-	4g	4dd-
2.r	2.r	2.r	8r
.	.	.	8g
.	.	.	8g
.	.	.	8g
.	.	.	8g
.	.	.	8g
=51	=51	=51	=51
1r	1r	1r	8.a-
.	.	.	32g
.	.	.	32a-
.	.	.	8g
.	.	.	8g
.	.	.	8g
.	.	.	8g
.	.	.	8g
.	.	.	8g
=52	=52	=52	=52
4E-	4b-	4g	4cc#
2.r	2.r	2.r	8r
.	.	.	8g
.	.	.	8g
.	.	.	8g
.	.	.	8g
.	.	.	8g
=53	=53	=53	=53
1r	1r	1r	8.a-
.	.	.	32g
.	.	.	32a-
.	.	.	8g
.	.	.	8g
.	.	.	8g
.	.	.	8g
.	.	.	8g
.	.	.	8g
=54	=54	=54	=54
4.r	4.r	4.r	4f#
.	.	.	2.r
8D	8d	8d	.
8D	8d	8d	.
8D	8d	8d	.
8D	8d	8d	.
8D	8d	8d	.
=55	=55	=55	=55
8.E-	8.e-	8.e-	1r
32D	32d	32d	.
32E-	32e-	32e-	.
8D	8d	8d	.
8D	8d	8d	.
8D	8d	8d	.
8D	8d	8d	.
8D	8d	8d	.
8D	8d	8d	.
=56	=56	=56	=56
4GG	4G	4G	2dd
2.r	4F#	2.r	.
.	4G	.	2b-
.	4B-	.	.
=57	=57	=57	=57
2G	1r	4r	4g
.	.	4B	2g
2E-	.	4c	.
.	.	4e-	4g
=58	=58	=58	=58
4C	4r	1r	2cc
2C	4E	.	.
.	4F	.	2a
4C	4A	.	.
=59	=59	=59	=59
2F	1r	4r	4f
.	.	4A	2f
2D	.	4B-	.
.	.	4d	[4f
=60	=60	=60	=60
2BB-	2r	1d-	4f]
.	.	.	2ff
2r	2B-	.	.
.	.	.	[4f
=61	=61	=61	=61
1r	2A	2c	4f]
.	.	.	2ff
.	2A-	2B	.
.	.	.	[4f
=62	=62	=62	=62
4r	2.G	2.B-	4f]
4GG	.	.	2e-
4GG	.	.	.
4GG#	4F	4B	4d
=63	=63	=63	=63
4AA	1F	[1A	1d
4AA	.	.	.
4AA	.	.	.
4AA	.	.	.
=64	=64	=64	=64
4AA	4E	4A]	4.c#
2.r	2.r	2.r	.
.	.	.	8e
.	.	.	8f
.	.	.	8f#
.	.	.	8g
.	.	.	8g#
=65	=65	=65	=65
1r	1r	1r	2a
.	.	.	2f
=66	=66	=66	=66
2D	2F	1A	4d
.	.	.	2d
2C	2F#	.	.
.	.	.	[4d
=67	=67	=67	=67
2BB-	2G	2B-	4d]
.	.	.	2dd
2FF#	2A	[2d	.
.	.	.	4cc
=68	=68	=68	=68
2GG	2G	2d_	2b-
4DD	4F	4d]	4a
4r	4r	4r	4r
=69	=69	=69	=69
1r	1r	1r	2g
.	.	.	2e
=70	=70	=70	=70
[1AA	4r	4r	2.c#
.	4E	4G	.
.	4E	4G	.
.	8E	4c#	8g
.	8G	.	8e
=71	=71	=71	=71
1AA]	4F	4d	2.d
.	2F	4A	.
.	.	4A	.
.	4A	4f	8dd
.	.	.	8a
=72	=72	=72	=72
4r	4r	2.f	2.a
4AA	4c#	.	.
4BB	4d	.	.
4C#	4A	4e	4g
=73	=73	=73	=73
4D	4A	4d	4f
4B-	4B-	4b-	2.r
4A	4A	4a	.
4C#	4C#	4c#	.
=74	=74	=74	=74
8D	8D	8d	2dd
8D	4A	4f	.
8D	.	.	.
8D	8A	8f	.
8D	8r	8r	4ff
8D	4f	4a	.
8D	.	.	4aa
8D	8f	8a	.
=75	=75	=75	=75
8D	8r	8r	2ddd
8D	4f	4a	.
8D	.	.	.
8D	8f	8a	.
8D	8r	8r	2fff
8D	4g#	4b	.
8D	.	.	.
8D	8g#	8b	.
=76	=76	=76	=76
8C	8r	8r	16eee
.	.	.	16ccc
8C	4a	4a	16ddd
.	.	.	16bb
8C	.	.	4aa
8C	8e	8a	.
8C	8r	8r	2r
8C	4e-	4a 4f	.
8C	.	.	.
8C	8e-	8a 8f	.
=77	=77	=77	=77
8BB-	8r	8r	2b-
8BB-	4d	4b- 4f	.
8BB-	.	.	.
8BB-	8d	8b- 8f	.
8BB-	8r	8r	4dd
8BB-	4d	4f	.
8BB-	.	.	4ff
8BB-	8d	8f	.
=78	=78	=78	=78
8BB-	8r	8r	2bb-
8BB-	4d	4f	.
8BB-	.	.	.
8BB-	8d	8f	.
8BB-	8r	8r	2ddd
8BB-	4e	4g	.
8BB-	.	.	.
8BB-	8e	8g	.
=79	=79	=79	=79
8AA	8r	8r	16ccc
.	.	.	16aa
8AA	4f	4f	16bb-
.	.	.	16gg
8AA	.	.	4ff
8AA	8c	8f	.
8A	8r	8r	2r
8A	4d 4c	4f#	.
8A	.	.	.
8A	8d 8c	8f#	.
=80	=80	=80	=80
8G	8r	8r	2g 2G
8G	4d 4B-	4g	.
8G	.	.	.
8G	8d 8B-	8g	.
8G	8r	8r	4b-
8G	4B-	4d	.
8G	.	.	4dd
8G	8B-	8d	.
=81	=81	=81	=81
8G	8r	8r	2gg
8G	4d	4b-	.
8G	.	.	.
8G	8d	8b-	.
8G	8r	8r	2bb-
8G	4d	4g	.
8G	.	.	.
8G	8d	8g	.
=82	=82	=82	=82
8D	8r	8r	16aa
.	.	.	16ff
8D	4d	4f	16gg
.	.	.	16ee
8D	.	.	4dd
8D	8d	8f	.
8D	8r	8r	2r
8D	4f	4a	.
8D	.	.	.
8D	8f	8a	.
=83	=83	=83	=83
8E	8r	8r	2gg
8E	4c#	4b-	.
8E	.	.	.
8E	8c#	8b-	.
8G	8r	8r	4ee
8G	8c#	8b-	.
8F	8d	8a	4dd
8F	8d	8a	.
=84	=84	=84	=84
8E	8r	8r	4cc#
8E	8e	8g	.
8D	8d	8f	4b-
8D	8d	8f	.
8C#	8r	8r	4a
8C#	8c#	4e	.
8C#	8A	.	4g
8C#	8A	8e	.
=85	=85	=85	=85
8C#	8A	2e	2g
8C#	8A	.	.
8C#	8A	.	.
8C#	8A	.	.
8D	8A	2d	2f
8D	8A	.	.
8GG#	8B	.	.
8GG#	8B	.	.
=86	=86	=86	=86
4AA	4E	4c#	4e
8r	8r	8r	8r
8A	8a	8a	8a
8A	8a	8a	8a
8A	8a	8a	8a
8A	8a	8a	8a
8A	8a	8a	8a
=87	=87	=87	=87
8.B-	8.b-	8.b-	8.b-
32A	32a	32a	32a
32B-	32b-	32b-	32b-
8A	8a	8a	8a
8A	8a	8a	8a
8A	8a	8a	8a
8A	8a	8a	8a
8A	8a	8a	8a
8A	8a	8a	8a
=88	=88	=88	=88
4D	4d	4d	4d
2.r	4r	4r	8r
.	.	.	8ff
.	[2d	4a	8ff
.	.	.	8ff
.	.	4b-	8ff
.	.	.	8ff
=89	=89	=89	=89
1r	4d]	4g#	8.ff
.	.	.	32ee
.	.	.	32ff
.	4c#	2a	8ee
.	.	.	8ee
.	2c	.	8ee-
.	.	.	8ee-
.	.	4g	8ee-
.	.	.	8ee-
=90	=90	=90	=90
2r	4c	4f#	8.ee-
.	.	.	32dd
.	.	.	32ee-
.	4B	4g	8dd
.	.	.	8dd
8r	8B-	8g#	8ddd
8B-	8f	8G#	8ddd
8B-	8f	8G#	8ddd
8B-	8f	8G#	8ddd
=91	=91	=91	=91
4BB-	4f	4G#	4ddd
4r	4r	4r	4r
2AA	4F	4A	4d
.	4G	4c#	4e
=92	=92	=92	=92
4D	4F	4d	4d
8r	8r	8r	8r
8A	8a	8a	8a
8A	8a	8a	8a
8A	8a	8a	8a
8A	8a	8a	8a
8A	8a	8a	8a
=93	=93	=93	=93
8.B-	8.b-	8.b-	8.b-
32A	32a	32a	32a
32B-	32b-	32b-	32b-
8A	8a	8a	8a
8A	8a	8a	8a
8A	8a	8a	8a
8A	8a	8a	8a
8A	8a	8a	8a
8A	8a	8a	8a
=94	=94	=94	=94
4D	4d	4d	4d
2.r	2.r	2.r	8r
.	.	.	8a
.	.	.	8a
.	.	.	8a
.	.	.	8a
.	.	.	8a
=95	=95	=95	=95
1r	4c#	4e	8.b-
.	.	.	32a
.	.	.	32b-
.	4d	4f	8a
.	.	.	8a
.	2r	2r	8a
.	.	.	8a
.	.	.	8a
.	.	.	8a
=96	=96	=96	=96
1r	4c	4e-	8.f#
.	.	.	32e
.	.	.	32f#
.	4B	4d	8g
.	.	.	8g
.	2r	2r	8g
.	.	.	8g
.	.	.	8g
.	.	.	8g
=97	=97	=97	=97
1r	4B	4d	8.a-
.	.	.	32g
.	.	.	32a-
.	4c	4e-	8g
.	.	.	8g
.	2r	2r	8g
.	.	.	8g
.	.	.	8g
.	.	.	8g
=98	=98	=98	=98
1r	4B-	4d-	8.e
.	.	.	32d
.	.	.	32e
.	4A	4c	8f
.	.	.	8f
.	2r	2r	8f
.	.	.	8f
.	.	.	8f
.	.	.	8f
=99	=99	=99	=99
[1EE	4A	4c	8.d#
.	.	.	32c#
.	.	.	32d#
.	4G#	4B	8e
.	.	.	8e
.	4B	4d	8e
.	.	.	8e
.	[4A	[4c	8e
.	.	.	8e
=100	=100	=100	=100
1EE_	4A]	4c]	8.d#
.	.	.	32c#
.	.	.	32d#
.	4G#	4B	8e
.	.	.	8e
.	4B	4d	8e
.	.	.	8e
.	[4A	[4c	8e
.	.	.	8e
=101	=101	=101	=101
4EE]	4A]	4c]	8.d#
.	.	.	32c#
.	.	.	32d#
8r	8G#	8B	4e
8E	8e	8e	.
8E	8e	8e	2r
8E	8e	8e	.
8E	8e	8e	.
8E	8e	8e	.
=102	=102	=102	=102
8.F	8.f	8.f	1r
32E	32e	32e	.
32F	32f	32f	.
8E	8e	8e	.
8E	8e	8e	.
8E	8e	8e	.
8E	8e	8e	.
8E	8e	8e	.
8E	8e	8e	.
=103	=103	=103	=103
4AA	4A	4A	2ee
2.r	4G#	2.r	.
.	4A	.	2cc
.	4c	.	.
=104	=104	=104	=104
2A	1r	4r	4a
.	.	4c#	2a
2F	.	4d	.
.	.	4f	4a
=105	=105	=105	=105
4D	4r	1r	2dd
2D	4F#	.	.
.	4G	.	2b-
4D	4B-	.	.
=106	=106	=106	=106
2G	1r	4r	4g
.	.	4B	2g
2E-	.	4c	.
.	.	4e-	4g
=107	=107	=107	=107
4C	1r	4r	4r
2C	.	4g	2ee-
.	.	4a-	.
4C	.	4g	4eee-
=108	=108	=108	=108
1r	2c	4.f#	4ddd
.	.	.	2dd
.	.	16g	.
.	.	16a	.
.	2B	4g	.
.	.	4f	4ddd
=109	=109	=109	=109
1r	2B-	4.e	4ccc
.	.	.	2cc
.	.	16f	.
.	.	16g	.
.	4A	4f	.
.	4A-	4f#	4ccc
=110	=110	=110	=110
4.r	4G	4g	4bb
.	8r	8r	8r
8G	8g	8g	8g
8G	8g	8g	8g
8G	8g	8g	8g
8G	8g	8g	8g
8G	8g	8g	8g
=111	=111	=111	=111
8.A-	8.a-	8.a-	8.a-
32G	32g	32g	32g
32A-	32a-	32a-	32a-
8G	8g	8g	8g
8G	8g	8g	8g
8G	8g	8g	8g
8G	8g	8g	8g
8G	8g	8g	8g
8G	8g	8g	8g
=112	=112	=112	=112
4C	4c	4c	4c
2.r	2.r	2.r	8r
.	.	.	8cc
.	.	.	8cc
.	.	.	8cc
.	.	.	8cc
.	.	.	8cc
=113	=113	=113	=113
4.r	4.r	4.r	4ee-
.	.	.	8r
8AA-	8c	8e-	8f#
8AA-	8c	8e-	8f#
8AA-	8c	8e-	8f#
8AA-	8c	8e-	8f#
8AA-	8c	8e-	8f#
=114	=114	=114	=114
4GG	4d	4B	4g
2.r	2.r	2.r	8r
.	.	.	8gg
.	.	.	8gg
.	.	.	8gg
.	.	.	8gg
.	.	.	8gg
=115	=115	=115	=115
4.r	4.r	4.r	4bb-
.	.	.	8r
8E-	8B-	8c#	8g
8E-	8B-	8c#	8g
8E-	8B-	8c#	8g
8E-	8B-	8c#	8g
8E-	8G	8c#	8g
=116	=116	=116	=116
4D	4A	4d	4f#
8r	8r	8r	8r
8D	8A	8d	8f#
8GG#	8B	8d	8f
8GG#	8B	8d	8f
8GG#	8B	8d	8f
8GG#	8B	8d	8f
=117	=117	=117	=117
4AA	4E	4c#	8e
.	.	.	8e
2.r	2.r	2.r	8r
.	.	.	8a
.	.	.	8a
.	.	.	8a
.	.	.	8a
.	.	.	8a
=118	=118	=118	=118
1r	1r	1r	8.b-
.	.	.	32a
.	.	.	32b-
.	.	.	8a
.	.	.	8a
.	.	.	8a
.	.	.	8a
.	.	.	8a
.	.	.	8a
=119	=119	=119	=119
[1D	2f	2a	4dd
.	.	.	2.r
.	2A	2f	.
=120	=120	=120	=120
4D]	4F	4d	1r
4F	4A	2d	.
4E	4G	.	.
4D	4F	4d	.
=121	=121	=121	=121
4E	4G	4c#	4.r
2.r	2.r	2.r	.
.	.	.	8g
.	.	.	8g
.	.	.	8g
.	.	.	8g
.	.	.	8g
=122	=122	=122	=122
1r	1r	1r	8.a
.	.	.	32g
.	.	.	32a
.	.	.	8g
.	.	.	8g
.	.	.	8g
.	.	.	8g
.	.	.	8g
.	.	.	8g
=123	=123	=123	=123
[1AA	2e	2g	4gg
.	.	.	2.r
.	2G	2e	.
=124	=124	=124	=124
4AA]	4E	4c#	1r
4BB-	4G	2c#	.
4AA	4A	.	.
4GG	4B-	4c#	.
=125	=125	=125	=125
4FF	4A	4d	4.r
2.r	2.r	2.r	.
.	.	.	8d
.	.	.	8d
.	.	.	8d
.	.	.	8d
.	.	.	8d
=126	=126	=126	=126
1r	1r	1r	8.e
.	.	.	32d
.	.	.	32e
.	.	.	8d
.	.	.	8d
.	.	.	8d
.	.	.	8d
.	.	.	8d
.	.	.	8d
=127	=127	=127	=127
4F#	4a	4cc	4.dd
4G	4g	4b-	.
.	.	.	8d
2r	2r	2r	8d
.	.	.	8d
.	.	.	8d
.	.	.	8d
=128	=128	=128	=128
4G	4g	4b-	4.dd
4A	4f	4a	.
.	.	.	8d
2r	2r	2r	8d
.	.	.	8d
.	.	.	8d
.	.	.	8d
=129	=129	=129	=129
4A	2f	4a	4.dd
4B-	.	4g#	.
.	.	.	8d
2r	2r	2r	8d
.	.	.	8d
.	.	.	8d
.	.	.	8d
=130	=130	=130	=130
4.r	4.r	4.r	4d
.	.	.	8r
8BB-	8F	8G#	8d
8BB-	8F	8G#	8d
8BB-	8F	8G#	8d
8BB-	8F	8G#	8d
8BB-	8F	8G#	8d
=131	=131	=131	=131
4AA	4D	4A	4f
4r	4r	4r	4r
4AA	4G	4c#	4e
4r	4r	4r	4r
=132	=132	=132	=132
4DD	4F	4d	4d
8r	8r	8r	8r
8A	8a	8a	8a
8A	8a	8a	8a
8A	8a	8a	8a
8A	8a	8a	8a
8A	8a	8a	8a
=133	=133	=133	=133
8.B-	8.b-	8.b-	8.b-
32A	32a	32a	32a
32B-	32b-	32b-	32b-
8A	8a	8a	8a
8A	8a	8a	8a
8A	8a	8a	8a
8A	8a	8a	8a
8A	8a	8a	8a
8A	8a	8a	8a
=134	=134	=134	=134
4d	4dd	4dd	4dd
8r	8r	8r	8r
8A	8a	8a	8a
8A	8a	8a	8a
8A	8a	8a	8a
8A	8a	8a	8a
8A	8a	8a	8a
=135	=135	=135	=135
8.B-	8.b-	8.b-	8.b-
32A	32a	32a	32a
32B-	32b-	32b-	32b-
8A	8a	8a	8a
8A	8a	8a	8a
8A	8a	8a	8a
8A	8a	8a	8a
8A	8a	8a	8a
8A	8a	8a	8a
=136	=136	=136	=136
4D	4d	4d	4d
2.r	2.r	2.r	2.r
==	==	==	==
*-	*-	*-	*-
!!!RWG1: This file contains only pitch and duration data.
!!!RWG2: Transposing instruments are not transposed.
!!!RWG3: Spines may have incompatible meters.
!!!RWG4: Durations of rests and tied notes may be interpreted.
!!!RWG: Key is interpreted using the Humdrum key tool.
!!!AFT: stage1
!!!END: 1997/04/15
!!!KEY: 3974289533
!!!EMD: Converted from MuseData to Humdrum Dec 16, 2000, by Andreas Kornstaedt using muse2kern.
!!!EMD: Manual editing by Craig Sapp, Nov 2001
